X:1
T:Lieder, Op.12
T:Er ist gekommen durch Sturm und Regen
T:Lieder, Op.12
T:2. Er ist gekommen durch Sturm und Regen
T:Clara Schumann
T:Friedrich Rückert
T:OpenScore (CC0)
T:OpenScore (CC0)
T:OpenScore (CC0)
C:Clara Schumann
Z:Friedrich Rückert
Z:OpenScore (CC0)
%%score ( 1 2 ) { ( 3 4 8 ) | ( 5 6 7 ) }
L:1/8
Q:1/4=120
M:4/4
K:Ab
V:1 treble nm="Voice"
V:2 treble 
V:3 treble nm="Piano"
V:4 treble 
V:8 treble 
V:5 bass 
V:6 bass 
V:7 bass 
V:1
"^Leidenschaftlich" z8 | z8 | z8 | z8 |: z!f!!<(! c d3/2 d/!<)!!>(! d2!>)! c2 | %5
w: ||||Er ist ge- kom- men|
w: ||||Er ist ge- kom- men|
 z!<(! c d3/2 d/!<)!!>(! d2!>)! c2 | z!<(! c d3/2 f/!<)!!>(! f2!>)! =e2 | %7
w: in Sturm und Re- gen,|ihm  schlug be- klom- men|
w: in Sturm und Re- gen,|er hat ge- nom men|
 z!<(! f a g!<)!!>(! f2!>)! =e2 | z8 | z8 |!p! c2 A F F2 E2 | z c A F F2 E2 ||[M:2/4] z2 z E || %13
w: mein  Herz ent- ge- gen.|||Wie konnt' ich ah- nen,|dass sei- ne Bah- nen|sich|
w: mein Herz ver- we- gen.|||Nahm er das mei- ne?|nahm ich das sei- ne?|die|
[M:4/4] F2 G2!<(! A A B c!<)! | (e3!>(! d) c2!>)! z2 | z8 | z8 :| %17
w: ei- nen soll- ten mei- nen|We- * gen?|||
w: bei- den ka- men sich ent-|ge- * gen.|||
 z!f!!<(! c d3/2 d/!<)!!>(! d2!>)! c2 | z!<(! c d3/2 d/!<)!!>(! d2!>)! c2 | %19
w: Er ist ge- kom- men|in Sturm und Re- gen,|
w: ||
 z!<(! c d3/2 f/!<)!!>(! f2!>)! =e2 | z!<(! f a g!<)!!>(! f2!>)! =e2 | z8 | z8 | %23
w: er ist ge- kom- men|in Sturm und Re- gen.|||
w: ||||
[Q:1/4=110]"_Ruhig" z4[Q:1/4=90]"^Ruhig" z!p! E A3/2 A/[Q:1/4=100] |!<(! A4!<)! =G2 _G2 | F6 B2 | %26
w: Nun ist ge-|kom- men des|Früh- lings|
w: |||
 B4 =A2 z d |!<(! d3 c!<)! B2 c c | d3 d d2 c c | F2 G2!<(! G A B c!<)! |!>(! (e3 d)!>)! c2 z c | %31
w: Se- gen. Der|Freund zieht wei- ter, ich|seh' es hei- ter, denn|er bleibt mein auf al- len|We- * gen, denn|
w: |||||
 c2!<(! c2 c d e f!<)! |!>(! (a3 _g)!>)! f2!p! f2 | f3 f f2 e =d | =d3 d d2 _d d | d3 d d2 c B | %36
w: er bleibt mein auf al- len|We- * gen. Nun|ist ge- kom- men des|Früh- lings Se- gen, der|Freund zieht wei- ter, ich|
w: |||||
 A3 B c2 B B | A3 B[Q:1/4=100]"^animato" c!<(! B c d!<)! |[Q:1/4=108]"^T"!>(! e8!>)! | %39
w: seh' es hei- ter, denn|er bleibt  mein  auf al- len|We-|
w: |||
[Q:1/4=115]"^T" A2 z2 z4 | z8 |[K:Ab] z8 | z8 | z8 | z8 |] %45
w: gen.||||||
w: ||||||
V:2
 x8 | x8 | x8 | x8 |: x8 | x8 | x8 | x8 | x8 | x8 | x8 | x8 ||[M:2/4] x4 ||[M:4/4] x8 | x8 | x8 | %16
 x8 :| x8 | x8 | x8 | x8 | x8 | x8 | x8 | x8 | x8 | x8 | x8 | x7 c | f2 x6 | x8 | x8 | x8 | x8 | %34
 x8 | x8 | x8 | x8 | x8 | x8 | x8 |[K:Ab] x8 | x8 | x8 | x8 |] %45
V:3
"^Sehr schnell" z/!p!!<(! F,/A,/C/ D/F/A/d/!<)!!f! d>d c/ x/ x | %1
!mp! z/!<(! F,/A,/C/ D/F/A/d/!<)!!ff!!>(! d>d c/ x/ x!>)! | %2
!f! z/!<(! F,/A,/C/ D/F/A/f/!<)!!>(! f>f =e/ x/ x!>)! | f2 a>[Gg] f2 =e/ x3/2 |: %4
 x4!>(! d>d c/ x3/2!>)! | x4!>(! d>d c/ x3/2!>)! | x4!>(! f>f =e/ x3/2!>)! | %7
!f! f2 a>[Gg] f2 =e/ x3/2 |!p! (e>c d>_f x4 | _D/) z (D/ _F/A/d/_f/ f/E/e/d/ B/G/E/D/ | %10
 C/) z/ z z/ (D/=D/F/ F>E B/e/=d/_d/ | c/) z/ z z/ (D/=D/F/ F>E B/e/=d/_d/ || %12
[M:2/4] c/) z/ z E/[I:staff +1]E,/A,/[I:staff -1]E/ ||[M:4/4] F2 G2!<(! AABc!<)! | %14
 z/ (E/[ce]/E/) z/ (E/[Bd]/!>(!E/) z/ (E/[Ac]/E/) z/ (E/[Ac]/E/)!>)! | %15
 z/ (=E/[Bd]/E/) z/"_cresc." (F/[Bd]/F/) z/ (G/[dg]/c/ B/G/E/C/) | %16
 z/ (=E/[Bd]/E/) z/ (F/B/F/) z/ (G/[dg]/c/ B/G/E/C/) :| x2 D/F/A/d/!>(! d>d c/ x3/2!>)! | %18
 x2 D/F/A/d/!>(! d>d c/ x3/2!>)! | x2 D/F/A/f/!>(! f>f =e/ x3/2!>)! | f2 a>g f2 =e/ x3/2 | %21
!p! (e>c d>_f f/E/e/d/ B/G/E/=D/ | _D/) z (D/ _F/A/d/_f/ f/E/e/d/ B/G/E/D/) | %23
!p! [CEc]2 [DEG]2 [CEA]2 [A,_CFA]2 | ([A,_C=DFA]4 [=G,B,E=G]2) [_G,B,E_G]2 | F6 [B,E_GB]2 | %26
 ([D=E=GB]4 [CF=A]2) [FBd]2 | [_EGd]2 [E_Ac]2 [EGB]2 [EAc]2 | [EGd]2 [EAd]2 [EBd]2 [EAc]2 | %29
!mf! z/ (A,/D/F/) z/ (B,/E/G/)!<(! GABc!<)! | %30
 z/!>(! (E/[ce]/E/) z/ (E/[Bd]/E/)!>)! z/ (E/[Ac]/E/) z/ (E/[Ac]/E/) |!mf! z c2 c cdef | %32
 z/!<(! A/[fa]/A/ z/ A/[e_g]/A/!<)! z/!>(! A/[df]/A/ z/ A/f/A/!>)! | %33
!p! [Af]3 [Af] [Af]2 [Ae][A=d] | [A=d]3 [Ad] [Ad]2 [G_d][Gd] | [Gd]3 [Ad] [Bd]2 [Ac][EB] | %36
!<(! (A3 B!<)!!>(! [Ec]2) [_FB][FB]!>)! | [EA]3 [DB] [Cc][_FB][Ec][Dd] | [EAe]2 z2 [DEG]2 z2 | %39
!p! [CEA] z (F/A/_c/f/ f/E/e/d/ B/G/E/D/ | C/) z/ z (F/A/_c/f/ f/E/e/d/ B/G/E/D/ | %41
[K:Ab] C) z _F/x/B/_f/"_dim." [Ace] z F/x/B/f/ | [Ace] z _F/G/c/B/ [Ae] z (F/G/c/B/ | %43
!pp! [EAe]2-) [EAe]/(c/A/E/ C/E/A/c/ e/a/c'/e'/ | a'/) z/ z z2 z4 |] %45
V:4
x4x/!>(!D/[GB]/d/ c/C/[GB]/c/!>)! |x4x/D/[GB]/d/ c/C/[GB]/c/ |x4x/F/[Bd]/F/ =e/=E/[Bd]/E/ | %3
 f/F/c/f/x/A/d/G/ f/F/c/f/ =e/=E/c/e/ |: z/!f!!<(! F,/A,/C/ D/F/A/d/!<)!x/D/[GB]/d/ c/C/[GB]/c/ | %5
 z/!<(! F,/A,/C/ D/F/A/d/!<)!x/D/[GB]/d/ c/C/[GB]/c/ | %6
 z/!<(! F,/A,/C/ D/F/A/f/!<)!x/F/[Bd]/f/ =e/=E/[Bd]/e/ | f/F/c/f/x/A/d/G/ f/F/c/f/ =e/=E/c/e/ | %8
x/_E/G/c/x/E/A/_f/ f/E/e/d/ B/G/E/=D/ | x8 | x8 | x8 ||[M:2/4] x2 E2 || %13
[M:4/4] F/F,/A,/F/ G/G,/E/G/ A/A,/E/A,/ E/B,/E/C/ | x8 | x8 | x8 :| %17
 z/!f!!<(! F,/A,/C/ D2!<)!x/D/[GB]/d/ c/C/[GB]/c/ | z/!<(! F,/A,/C/ D2!<)!x/D/[GB]/d/ c/C/[GB]/c/ | %19
 z/!<(! F,/A,/C/ D2!<)!x/F/[Bd]/f/ =e/=E/[Bd]/e/ | f/F/c/f/x/A/d/G/ f/F/c/f/ =e/=E/c/e/ | %21
x/_E/G/c/x/E/A/_f/ x4 | x8 | x8 | x8 | [F,B,]2 [F,=A,E]2 [F,B,_D]2 x2 | x8 | x8 | x8 | %29
 x4 E/B,/E/A,/ E/B,/E/C/ | x8 | z/ E/A/E/ A/E/A/E/ A/E/A/D/ A/E/A/F/ | x8 | x8 | x8 | x8 | %36
 ECD=D x4 | x8 | x8 | x8 | x8 |[K:Ab] x2 (_F2 E) x (F2 | E) x (_F2 E) x F2 | x8 | x8 |] %45
V:5
 x4 B,4 | x4 B,4 | F,,2 D,2 B,4 | C2 D2 C4 |: x4 B,4 | x4 B,4 | F,,2 D,2 B,4 | C2 D2 C4 | %8
 !arpeggio![B,,E,G,D]2 !arpeggio![A,,E,A,D]2 !arpeggio![G,,E,B,D]4 | %9
 ([B,,=E,]/G,/C/ z/ [A,,_F,]/A,/D/ z/ [G,,_E,]/B,/D/) z/ z2 | %10
"^legato e dolce" z/ (A,,/E,/A,/ C/) z/ z z/ (G,,/E,/B,/ _D/) z/ z | %11
 z/ (A,,/E,/A,/ C/) z/ z z/ (G,,/E,/B,/ _D/) z/ z ||[M:2/4] z/ (A,,/E,/A,/) C,2 || %13
[M:4/4] D,2 [D,E,]2 [D,E,][C,E,][B,,E,][A,,E,] | [F,,E,]2 [G,,E,]2 [A,,E,]2 [A,C]2 | %15
 [G,B,D]4- D2 C2 | [G,B,D]4- D2 C2 :| x4 B,4 | x4 B,4 | F,,2 D,2 B,4 | C2 D2 C4 | %21
 [B,,E,G,D]2 [A,,E,A,D]2 [G,,E,B,D]4 | %22
 ([B,,=E,]/G,/C/) z/ ([A,,_F,]/A,/D/) z/ ([G,,_E,]/B,/D/) z/ z2 | %23
 z/ (A,,/E,/A,/) z/ (B,,/E,/G,/) z/ (C,/E,/A,/) z/ (=D,,/_C,/F,/) | %24
 z/ (E,,/_C,/=D,/ F,/A,/_C/=D/) z/ E,,/B,,/E,/ z/ (E,,/B,,/_G,/) | %25
 z/ (_D,,/B,,/F,/) z/ C,,/(F,,/E,/) z/ (B,,,/F,,/D,/) z/ (E,,/B,,/_G,/) | %26
 z/ (F,,/D,/=E,/ G,/B,/D/=E/) z/ (F,,/C,/F,/) z/ (B,,/F,/D/) | %27
 z/ (B,,/_E,/[G,D]/) z/ (C,/E,/[A,C]/) z/ (D,/E,/[G,B,]/) z/ (C,/E,/[A,C]/) | %28
 z/ (B,,/E,/[G,D]/) z/ (A,,/E,/[A,D]/) z/ (G,,/E,/[B,D]/) z/ (A,,/E,/[A,C]/) | %29
 D,2 [D,E,]2 [D,E,][C,E,][B,,E,][A,,E,] | E,4- E,2 x2 | %31
 [_G,A,C]3 [G,A,C] [G,A,C][F,A,][E,A,][D,A,] | A,4- A,2 x2 | [DF]3 [DF] [DF]2 [CE][_CF] | %34
 [_CF]3 [CF] [CF]2 [B,_F][B,F] | [B,_F]3 [A,F] [G,F]2 [A,E][G,B,] | %36
 [F,A,]3 [_F,A,] [E,A,]2 [_D,A,][D,A,] | [C,A,]3 [_F,A,]"^animato" [E,A,][D,A,][E,A,][F,A,] | %38
!ped! [E,C]2 z2!ped-up! [E,B,]2 z2 | z/ (A,,/E,/A,/ [=D,F,A,_C]) z z/ (G,,/E,/B,/ _D/) z/ z | %40
 z/ (A,,/E,/A,/ [=D,F,A,_C]) z z/ (G,,/E,/B,/ _D/) z/ z | %41
[K:Ab] z/ (A,,/E,/C/ [_F,G,D]) z z/ (A,,/E,/C/ [F,G,D]) z | z/ (A,,/E,/C/ D) z z/ (A,,/E,/C/ D) z | %43
!ped! z/ (A,,/E,/A,/ C/E/C/A,/) (E,/A,/C/E/[K:treble] A/c/e/a/ | c'/) z/!ped-up! z z2 z4 |] %45
V:6
 F,,4 =E,,4 | F,,4 =E,,4 | F,,4 G,,4 | F,2 F,G, A,2 G,2 |: F,,2 D,2- D,2 C,2 | F,,2 D,2- D,2 C,2 | %6
 F,,4 G,,4 | F,2 F,G, A,2 G,2 | x8 | x8 | x8 | x8 ||[M:2/4] x4 ||[M:4/4] x8 | x8 | %15
 G,2 F,2 [=E,G,B,]4 | G,2 F,2 [C,=E,G,B,]4 :| F,,2 D,2- D,2 C,2 | F,,2 D,2- D,2 C,2 | F,,4 G,,4 | %20
 F,2 F,G, A,2 G,2 | x8 | x8 | x8 | x8 | x8 | x8 | x8 | x8 | x8 | F,,2 G,,2 A,,2 [A,C]2 | x8 | %32
 B,,2 C,2 D,2 [DF]2 | x8 | x8 | x8 | x8 | x8 | x8 | x8 | x8 | %41
[K:Ab] x2 x[I:staff -1] B[I:staff +1] x2 x[I:staff -1] B | x8 | x6[I:staff +1][K:treble] x2 | x8 |] %45
V:7
 F,,2 D,2- D,2 C,2 | F,,2 D,2- D,2 C,2 | x8 | A,,2 B,,2 C,4 |: F,,4 =E,,4 | F,,4 =E,,4 | x8 | %7
 A,,2 B,,2 C,4 | x8 | x8 | x8 | x8 ||[M:2/4] x4 ||[M:4/4] x8 | x8 | x8 | x8 :| F,,4 =E,,4 | %18
 F,,4 =E,,4 | x8 | A,,2 B,,2 C,4 | x8 | x8 | x8 | x8 | x8 | x8 | x8 | x8 | x8 | x8 | x8 | x8 | x8 | %34
 x8 | x8 | x8 | x8 | x8 | x8 | x8 |[K:Ab] x8 | x8 | x6[K:treble] x2 | x8 |] %45
V:8
 x8 | x8 | x8 | x8 |: x8 | x8 | x8 | x8 | x8 | x8 | x8 | x8 ||[M:2/4] x4 ||[M:4/4] x8 | x8 | x8 | %16
 x8 :| x8 | x8 | x8 | x8 | x8 | x8 | x8 | x8 | x8 | x8 | x8 | x8 | x8 | x8 | x8 | x8 | x8 | x8 | %35
 x8 | x8 | x8 | x8 | x8 | x8 |[K:Ab] x2 x/ G3/2 x2 x/ G3/2 | x8 | x8 | x8 |] %45

